src/svg/particle-Union.svg

<svg fill="none" height="90" viewBox="0 0 49 90" width="49" xmlns="http://www.w3.org/2000/svg"><path clip-rule="evenodd" d="m25.4834 85.8905v-85.087033h-1v86.458233l-.0648.0889-23.437309-32.1361-.807951.5893 23.84126 32.69.404.5539.4039-.5539 23.8413-32.69-.808-.5893z" fill="#1300ed" fill-rule="evenodd"/></svg>

<svg width="49" height="90" viewBox="0 0 49 90" fill="none" xmlns="http://www.w3.org/2000/svg">
<path fill-rule="evenodd" clip-rule="evenodd" d="M25.4834 85.8905L25.4834 0.803467L24.4834 0.803467L24.4834 87.2617L24.4186 87.3506L0.981291 55.2145L0.17334 55.8038L24.0146 88.4938L24.4186 89.0477L24.8225 88.4938L48.6638 55.8038L47.8558 55.2145L25.4834 85.8905Z" fill="#1300ED"/>
</svg>
